X:11
T:Le cueur est bon
T:(Basse dansse 11)
C:Tielman Susato
B:Tielman Susato: "Danserye" (1551) no. 11
R:Basse dance
Z:Transcribed by Frank Nordberg - http://www.musicaviva.com
F:http://abc.musicaviva.com/tunes/susato-tielman/susato-1551-11/susato-1551-11-4m.abc
M:3/2
L:1/2
K:Gmix
V:1
GFD|A2z|cBG|d2d|d^c/B/^c|d>cc|B/A/B/c/d/B/|c2z|
V:2
CA,B,|C2z|FDE|FD>E|F/G/A2|F>GA|G/F/G2|E2z|
V:3
G,DB,|A,2z|A,B,C|DF>E|DE2|DF>E|D/C/D2|C2z|
V:4
C,D,G,|F,2z|F,G,E,|D,2D,|D,A,2|D,>E,F,|G,/A,/G,2|C,2z|
%
V:1
GFD|A2z|G//A//B//c// d/c/B/A/|B2B|BB/A/G/^F/|GA>G|G2^F|G2G:|
V:2
EC/A,/D/B,/|C2z|D2G|G2G|G^FE-|EEE|CD2|B,2B,:|
V:3
CA,/C/B,|A,2z|B,2B,|D2D|D>C B,/A,/|B,C>B,|G,A,2|G,2G,:|
V:4
C,F,G,|F,2z|G,2G,|G,2G,|G,D,E,|E,A,,/B,,/C,/D,/|E,D,2|G,2G,:|
%
V:1
|:c2c|B2B|G//A//B//c// d/c/B/A/|G2z|GAB|cd>c|c3/2B//A//B|c2z|
V:2
|:C>D E/^F/|G2G|DFG|E2z|EEG|GA>G|E/^F/G2|E2z|
V:3
|:E2C|D2D|B,A,B,|C2z|B,CD|EF>E|CD2|C2z|
V:4
|:A,2A,|G,2G,|G,D,G,|C,2z|E,A,G,/F,/|E,D,/E,/F,/G,/|A,G,2|C,2z|
%
V:1
G//A//B//c// d/c/B/A/|G2G|AG/F/E/D/|E2z|C/B,/C/D/E/F/|Gc/B/A/G/|G2^F|G2z|
V:2
D2D|E2E|CG,2|G,2z|E2C|E2F|DD2|B,2z|
V:3
B,2B,|B,2C|A,B,2|C2z|G,A,G,|C2C|B,A,2|G,2z|
V:4
G,2G,|E,2C,|F,E,2|C,2z|C,2C,|C,2F,|G,D,2|G,,2z|
%
V:1
"^Segno"GFD|A2z|cBG|d2d|d^c/B/^c|d>cc|B/A/B/c/d/B/|c2z|
V:2
CA,B,|C2z|FDE|FD>E|F/G/A2|F>GA|G/F/G2|E2z|
V:3
G,DB,|A,2z|A,B,C|DF>E|DE2|DF>E|D/C/D2|C2z|
V:4
C,D,G,|F,2z|F,G,E,|D,2D,|D,A,2|D,>E,F,|G,/A,/G,2|C,2z|
%
V:1
GFD|A2z|G//A//B//c// d/c/B/A/|B2B|BB/A/G/F/|GA>G|G2^F|G2"^Segno"z:|
V:2
EC/A,/D/B,/|C2z|D2G|G2G|G^FE-|EEE|CD2|B,2B,:|
V:3
CA,/C/B,|A,2z|B,2B,|D2D|D>C B,/A,/|B,C>B,|G,A,2|G,2z:|
V:4
C,F,G,|F,2z|G,2G,|G,2G,|G,D,E,|E,A,,/B,,/C,/D,/|E,D,2|G,2G,:|
W:
W:
W:  From Musica Viva - http://www.musicaviva.com
W:  the Internet center for free sheet music downloads.
